SVG_Azure_All/Kubernetes Configuration.svg

<?xml version="1.0" encoding="UTF-8" standalone="no"?>
<!-- Generated by Microsoft Visio, SVG Export Kubernetes Configuration.svg Page-1 -->

<svg
   xmlns:dc="http://purl.org/dc/elements/1.1/"
   xmlns:cc="http://creativecommons.org/ns#"
   xmlns:rdf="http://www.w3.org/1999/02/22-rdf-syntax-ns#"
   xmlns:svg="http://www.w3.org/2000/svg"
   xmlns="http://www.w3.org/2000/svg"
   xmlns:sodipodi="http://sodipodi.sourceforge.net/DTD/sodipodi-0.dtd"
   xmlns:inkscape="http://www.inkscape.org/namespaces/inkscape"
   width="0.62985766in"
   height="0.78735679in"
   viewBox="0 0 45.349495 56.69"
   xml:space="preserve"
   class="st4"
   version="1.1"
   id="svg65"
   sodipodi:docname="Kubernetes Configuration.svg"
   style="font-size:12px;overflow:visible;color-interpolation-filters:sRGB;fill:none;fill-rule:evenodd;stroke-linecap:square;stroke-miterlimit:3"
   inkscape:version="0.92.5 (2060ec1f9f, 2020-04-08)"><metadata
   id="metadata69"><rdf:RDF><cc:Work
       rdf:about=""><dc:format>image/svg+xml</dc:format><dc:type
         rdf:resource="http://purl.org/dc/dcmitype/StillImage" /></cc:Work></rdf:RDF></metadata><sodipodi:namedview
   pagecolor="#ffffff"
   bordercolor="#666666"
   borderopacity="1"
   objecttolerance="10"
   gridtolerance="10"
   guidetolerance="10"
   inkscape:pageopacity="0"
   inkscape:pageshadow="2"
   inkscape:window-width="640"
   inkscape:window-height="480"
   id="namedview67"
   showgrid="false"
   inkscape:zoom="1.4193119"
   inkscape:cx="30.235832"
   inkscape:cy="37.786193"
   inkscape:window-x="0"
   inkscape:window-y="0"
   inkscape:window-maximized="0"
   inkscape:current-layer="svg65" />
	<style
   type="text/css"
   id="style2">
	<![CDATA[
		.st1 {fill:url(#grad0-6);stroke:none;stroke-linecap:butt;stroke-width:34}
		.st2 {fill:#ffffff;fill-opacity:0.8;stroke:none;stroke-linecap:butt;stroke-width:34}
		.st3 {fill:#ffffff;stroke:none;stroke-linecap:butt;stroke-width:34}
		.st4 {fill:none;fill-rule:evenodd;font-size:12px;overflow:visible;stroke-linecap:square;stroke-miterlimit:3}
	]]>
	</style>

	<defs
   id="Patterns_And_Gradients">
		<linearGradient
   id="grad0-6"
   x1="-1.0456476e-08"
   y1="60.837596"
   x2="50.703959"
   y2="60.837596"
   gradientTransform="scale(0.89440747,1.1180586)"
   gradientUnits="userSpaceOnUse">
			<stop
   offset="0"
   stop-color="#a67af4"
   stop-opacity="1"
   id="stop4" />
			<stop
   offset="1"
   stop-color="#773adc"
   stop-opacity="1"
   id="stop6" />
		</linearGradient>
	</defs>
	<g
   id="g63"
   transform="translate(-34.000633,-34.0043)">
		<title
   id="title10">Page-1</title>
		<g
   id="group3613-1"
   transform="translate(34,-34.0157)">
			<title
   id="title12">Kubernetes Configuration</title>
			<g
   id="group3614-2">
				<title
   id="title14">Sheet.3614</title>
				<g
   id="shape3615-3">
					<title
   id="title16">Sheet.3615</title>
					<path
   d="m 0,122.82 a 1.8496,1.88981 -180 0 0 1.85,1.89 H 43.5 a 1.8496,1.88981 -180 0 0 1.85,-1.89 V 69.91 A 1.8496,1.88981 -180 0 0 43.5,68.02 H 1.85 A 1.8496,1.88981 -180 0 0 0,69.91 Z"
   class="st1"
   id="path18"
   inkscape:connector-curvature="0"
   style="fill:url(#grad0-6);stroke:none;stroke-width:34;stroke-linecap:butt" />
				</g>
				<g
   id="shape3616-7"
   transform="translate(5.80454,-40.2866)">
					<title
   id="title21">Sheet.3616</title>
					<path
   d="m 0,123.5 a 1.18375,1.20948 -180 0 0 1.18,1.21 h 4.16 a 1.18375,1.20948 -180 0 0 1.19,-1.21 v -2.94 A 1.18375,1.20948 -180 0 0 5.34,119.35 H 1.18 A 1.18375,1.20948 -180 0 0 0,120.56 Z"
   class="st2"
   id="path23"
   inkscape:connector-curvature="0"
   style="fill:#ffffff;fill-opacity:0.8;stroke:none;stroke-width:34;stroke-linecap:butt" />
				</g>
				<g
   id="shape3617-9"
   transform="translate(16.7724,-40.2866)">
					<title
   id="title26">Sheet.3617</title>
					<path
   d="m 0,123.54 a 1.14675,1.17168 -180 0 0 1.15,1.17 h 20.17 a 1.14675,1.17168 -180 0 0 1.14,-1.17 v -3.01 a 1.14675,1.17168 -180 0 0 -1.14,-1.18 H 1.15 A 1.14675,1.17168 -180 0 0 0,120.53 Z"
   class="st3"
   id="path28"
   inkscape:connector-curvature="0"
   style="fill:#ffffff;stroke:none;stroke-width:34;stroke-linecap:butt" />
				</g>
				<g
   id="shape3618-11"
   transform="translate(12.6418,-30.4535)">
					<title
   id="title31">Sheet.3618</title>
					<path
   d="m 0,123.66 a 1.02345,1.04569 -180 0 0 1.02,1.05 h 4.51 a 1.02345,1.04569 -180 0 0 1.02,-1.05 V 120.4 A 1.02345,1.04569 -180 0 0 5.53,119.35 H 1.02 A 1.02345,1.04569 -180 0 0 0,120.4 Z"
   class="st2"
   id="path33"
   inkscape:connector-curvature="0"
   style="fill:#ffffff;fill-opacity:0.8;stroke:none;stroke-width:34;stroke-linecap:butt" />
				</g>
				<g
   id="shape3619-13"
   transform="translate(23.6713,-30.4535)">
					<title
   id="title36">Sheet.3619</title>
					<path
   d="m 0,123.69 a 0.992621,1.0142 -180 0 0 0.992598,1.01417 L 14.69,124.71 a 0.992621,1.0142 -180 0 0 0.992598,-1.01417 L 15.68,120.37 a 0.992621,1.0142 -180 0 0 -0.992598,-1.01417 L 0.99,119.35 a 0.992621,1.0142 -180 0 0 -0.992598,1.01417 z"
   class="st3"
   id="path38"
   inkscape:connector-curvature="0"
   style="fill:#ffffff;stroke:none;stroke-width:34;stroke-linecap:butt" />
				</g>
				<g
   id="shape3620-15"
   transform="translate(12.6171,-20.6173)">
					<title
   id="title41">Sheet.3620</title>
					<path
   d="m 0,123.66 a 1.02345,1.04569 -180 0 0 1.02,1.05 h 4.53 a 1.02345,1.04569 -180 0 0 1.03,-1.05 V 120.4 A 1.02345,1.04569 -180 0 0 5.55,119.35 H 1.02 A 1.02345,1.04569 -180 0 0 0,120.4 Z"
   class="st2"
   id="path43"
   inkscape:connector-curvature="0"
   style="fill:#ffffff;fill-opacity:0.8;stroke:none;stroke-width:34;stroke-linecap:butt" />
				</g>
				<g
   id="shape3621-17"
   transform="translate(23.6713,-20.6173)">
					<title
   id="title46">Sheet.3621</title>
					<path
   d="m 0,123.69 a 0.992621,1.0142 -180 0 0 0.992598,1.01417 L 14.69,124.71 a 0.992621,1.0142 -180 0 0 0.992598,-1.01417 L 15.68,120.37 a 0.992621,1.0142 -180 0 0 -0.992598,-1.01417 L 0.99,119.35 a 0.992621,1.0142 -180 0 0 -0.992598,1.01417 z"
   class="st3"
   id="path48"
   inkscape:connector-curvature="0"
   style="fill:#ffffff;stroke:none;stroke-width:34;stroke-linecap:butt" />
				</g>
				<g
   id="shape3622-19"
   transform="translate(5.9186,-10.7843)">
					<title
   id="title51">Sheet.3622</title>
					<path
   d="m 0,123.5 a 1.18375,1.20948 -180 0 0 1.18,1.21 h 4.16 a 1.18375,1.20948 -180 0 0 1.19,-1.21 v -2.94 A 1.18375,1.20948 -180 0 0 5.34,119.35 H 1.18 A 1.18375,1.20948 -180 0 0 0,120.56 Z"
   class="st2"
   id="path53"
   inkscape:connector-curvature="0"
   style="fill:#ffffff;fill-opacity:0.8;stroke:none;stroke-width:34;stroke-linecap:butt" />
				</g>
				<g
   id="shape3623-21"
   transform="translate(16.8865,-10.7843)">
					<title
   id="title56">Sheet.3623</title>
					<path
   d="m 0,123.54 a 1.14675,1.17168 -180 0 0 1.15,1.17 h 20.17 a 1.14675,1.17168 -180 0 0 1.14,-1.17 v -3.01 a 1.14675,1.17168 -180 0 0 -1.14,-1.18 H 1.15 A 1.14675,1.17168 -180 0 0 0,120.53 Z"
   class="st3"
   id="path58"
   inkscape:connector-curvature="0"
   style="fill:#ffffff;stroke:none;stroke-width:34;stroke-linecap:butt" />
				</g>
			</g>
		</g>
	</g>
</svg>

<?xml version="1.0" encoding="UTF-8" standalone="no"?>
<!DOCTYPE svg PUBLIC "-//W3C//DTD SVG 1.1//EN" "http://www.w3.org/Graphics/SVG/1.1/DTD/svg11.dtd">
<!-- Generated by Microsoft Visio, SVG Export Kubernetes Configuration.svg Page-1 -->
<svg xmlns="http://www.w3.org/2000/svg" xmlns:xlink="http://www.w3.org/1999/xlink" xmlns:ev="http://www.w3.org/2001/xml-events"
		width="1.57437in" height="1.73206in" viewBox="0 0 113.354 124.709" xml:space="preserve" color-interpolation-filters="sRGB"
		class="st4">
	<style type="text/css">
	<![CDATA[
		.st1 {fill:url(#grad0-6);stroke:none;stroke-linecap:butt;stroke-width:34}
		.st2 {fill:#ffffff;fill-opacity:0.8;stroke:none;stroke-linecap:butt;stroke-width:34}
		.st3 {fill:#ffffff;stroke:none;stroke-linecap:butt;stroke-width:34}
		.st4 {fill:none;fill-rule:evenodd;font-size:12px;overflow:visible;stroke-linecap:square;stroke-miterlimit:3}
	]]>
	</style>

	<defs id="Patterns_And_Gradients">
		<linearGradient id="grad0-6" x1="0" y1="0" x2="1" y2="0" gradientTransform="rotate(90 0.5 0.5)">
			<stop offset="0" stop-color="#a67af4" stop-opacity="1"/>
			<stop offset="1" stop-color="#773adc" stop-opacity="1"/>
		</linearGradient>
	</defs>
	<g>
		<title>Page-1</title>
		<g id="group3529-1" transform="translate(34,-34.0157)">
			<title>Kubernetes Configuration</title>
			<g id="group3530-2">
				<title>Sheet.3530</title>
				<g id="shape3531-3">
					<title>Sheet.3531</title>
					<path d="M0 122.82 A1.8496 1.88981 -180 0 0 1.85 124.71 L43.5 124.71 A1.8496 1.88981 -180 0 0 45.35 122.82 L45.35
								 69.91 A1.8496 1.88981 -180 0 0 43.5 68.02 L1.85 68.02 A1.8496 1.88981 -180 0 0 0 69.91 L0 122.82
								 Z" class="st1"/>
				</g>
				<g id="shape3532-7" transform="translate(5.80454,-40.2866)">
					<title>Sheet.3532</title>
					<path d="M0 123.5 A1.18375 1.20948 -180 0 0 1.18 124.71 L5.34 124.71 A1.18375 1.20948 -180 0 0 6.53 123.5 L6.53
								 120.56 A1.18375 1.20948 -180 0 0 5.34 119.35 L1.18 119.35 A1.18375 1.20948 -180 0 0 -0 120.56 L0
								 123.5 Z" class="st2"/>
				</g>
				<g id="shape3533-9" transform="translate(16.7724,-40.2866)">
					<title>Sheet.3533</title>
					<path d="M0 123.54 A1.14675 1.17168 -180 0 0 1.15 124.71 L21.32 124.71 A1.14675 1.17168 -180 0 0 22.46 123.54
								 L22.46 120.53 A1.14675 1.17168 -180 0 0 21.32 119.35 L1.15 119.35 A1.14675 1.17168 -180 0 0 -0 120.53
								 L0 123.54 Z" class="st3"/>
				</g>
				<g id="shape3534-11" transform="translate(12.6418,-30.4535)">
					<title>Sheet.3534</title>
					<path d="M0 123.66 A1.02345 1.04569 -180 0 0 1.02 124.71 L5.53 124.71 A1.02345 1.04569 -180 0 0 6.55 123.66 L6.55
								 120.4 A1.02345 1.04569 -180 0 0 5.53 119.35 L1.02 119.35 A1.02345 1.04569 -180 0 0 0 120.4 L0 123.66
								 Z" class="st2"/>
				</g>
				<g id="shape3535-13" transform="translate(23.6713,-30.4535)">
					<title>Sheet.3535</title>
					<path d="M0 123.69 a0.992621 1.0142 -180 0 0 0.992598 1.01417 L14.69 124.71 a0.992621 1.0142 -180 0 0 0.992598
								 -1.01417 L15.68 120.37 a0.992621 1.0142 -180 0 0 -0.992598 -1.01417 L0.99 119.35 a0.992621 1.0142
								 -180 0 0 -0.992598 1.01417 L0 123.69 Z" class="st3"/>
				</g>
				<g id="shape3536-15" transform="translate(12.6171,-20.6173)">
					<title>Sheet.3536</title>
					<path d="M0 123.66 A1.02345 1.04569 -180 0 0 1.02 124.71 L5.55 124.71 A1.02345 1.04569 -180 0 0 6.58 123.66 L6.58
								 120.4 A1.02345 1.04569 -180 0 0 5.55 119.35 L1.02 119.35 A1.02345 1.04569 -180 0 0 0 120.4 L0 123.66
								 Z" class="st2"/>
				</g>
				<g id="shape3537-17" transform="translate(23.6713,-20.6173)">
					<title>Sheet.3537</title>
					<path d="M0 123.69 a0.992621 1.0142 -180 0 0 0.992598 1.01417 L14.69 124.71 a0.992621 1.0142 -180 0 0 0.992598
								 -1.01417 L15.68 120.37 a0.992621 1.0142 -180 0 0 -0.992598 -1.01417 L0.99 119.35 a0.992621 1.0142
								 -180 0 0 -0.992598 1.01417 L0 123.69 Z" class="st3"/>
				</g>
				<g id="shape3538-19" transform="translate(5.9186,-10.7843)">
					<title>Sheet.3538</title>
					<path d="M0 123.5 A1.18375 1.20948 -180 0 0 1.18 124.71 L5.34 124.71 A1.18375 1.20948 -180 0 0 6.53 123.5 L6.53
								 120.56 A1.18375 1.20948 -180 0 0 5.34 119.35 L1.18 119.35 A1.18375 1.20948 -180 0 0 -0 120.56 L0
								 123.5 Z" class="st2"/>
				</g>
				<g id="shape3539-21" transform="translate(16.8865,-10.7843)">
					<title>Sheet.3539</title>
					<path d="M0 123.54 A1.14675 1.17168 -180 0 0 1.15 124.71 L21.32 124.71 A1.14675 1.17168 -180 0 0 22.46 123.54
								 L22.46 120.53 A1.14675 1.17168 -180 0 0 21.32 119.35 L1.15 119.35 A1.14675 1.17168 -180 0 0 -0 120.53
								 L0 123.54 Z" class="st3"/>
				</g>
			</g>
		</g>
	</g>
</svg>
